!!!id: EG092 *****PLEASE SPLIT*****
!!!page: 76-79
!!!COM: Anonymous
!!!LYR: Anonymous
!!!PTL@@FR: Chansons Populaires du Canada
!!!OTL@@FR: Si tu mets anguille – un canadien errant
!!!PUB: G. E. Desbarats
!!!YEM:
!!!PDT: 1865
!!!SMA:
!!!OMD:
!!!AGN-Laforte:
!!!AGN-type:
!!!AGN-rime:
**kern
*clefG2
*k[f#]
*G:
*M3/8
*
*
=1
8g
8g
8g
=2
4d
8g
=3
4.b
=4
8b/
8a
8b/
=5
4cc
8b
!!LO:PB:g=original
=6
4a
8r
=7
8g
8g
8g
=8
4d
8g
=9
4.b
=10
8b/
8a
8b/
=11
4cc
8b
!!LO:PB:g=original
=12
4.a
=13
8a
8a
8a
=14
8b
8cc
=15
4.dd
=16
8cc
8cc
8cc
=17
4b/
8a
!!LO:PB:g=original
=18
4g
8r
=19
8g
8g
8g
=20
4ee
8dd
=21
4.dd
=22
8cc
8cc
8cc
=23
4b/
8a
!!LO:PB:g=original
=24
4g
8r
==||
*
*
==|
!!!RNB: Final eighth rest flipped backward in original
*-
